X:116
T: WER HOFFAHRT TREIBT MIT FREMDEN GUT
N: E1176
O: Europa, Mitteleuropa, Deutschland
R: Zech -, Spott - Lied
M: 4/4
L: 1/4
K: F
cdd | cABG | F2z
f | edcB | c2d2 | c4 | z
cdd | cABG | F2z
f | edcB | c2d2 | c4 | z
cff | ecdB | A2z
c | ABcF | G2F2 | z
FAB | cBde | f2z
F | FcAF | c2d2 | c4 | z

@@@ Tune index: 4800
